svgs/Instagram-icons.svg

<svg height="60" viewBox="0 0 60 60" width="60" xmlns="http://www.w3.org/2000/svg"><g fill="#e96e14" fill-rule="evenodd"><path d="m0 30c0-16.5685433 13.4314567-30 30-30s30 13.4314567 30 30-13.4314567 30-30 30-30-13.4314567-30-30zm30.0015-16c-4.3453786 0-4.8907176.0190002-6.597402.0966677-1.7033511.0780008-2.8660299.3476703-3.8833738.7433411-1.0523443.4086709-1.9450203.9553432-2.8343629 1.8450192-.8900093.8893426-1.4366816 1.7820185-1.8466859 2.8340295-.3966708 1.0176773-.6666736 2.1806894-.7433411 3.8833738-.0763341 1.7066844-.0963343 2.2523568-.0963343 6.5977354s.0193335 4.8890509.0966677 6.5957353c.0783341 1.7033511.3480036 2.8660299.7433411 3.8833738.4090042 1.0523443.9556766 1.9450203 1.8453525 2.8343629.8890093.8900093 1.7816852 1.438015 2.8333629 1.8466859 1.0180106.3956708 2.1810227.6653403 3.8840404.7433411 1.7066845.0776674 2.2516901.0966676 6.5967354.0966676 4.3457119 0 4.8893843-.0190002 6.5960687-.0966676 1.7033511-.0780008 2.8673632-.3476703 3.8853738-.7433411 1.052011-.4086709 1.9433536-.9566766 2.8323628-1.8466859.8900093-.8893426 1.4366817-1.7820186 1.8466859-2.8340295.3933375-1.0176773.6633403-2.1806894.7433411-3.8833738.0766675-1.7066845.0966677-2.2506901.0966677-6.5960687s-.0200002-4.8907176-.0966677-6.5974021c-.0800008-1.7033511-.3500036-2.8660298-.7433411-3.8833738-.4100042-1.0523443-.9566766-1.9450202-1.8466859-2.8343628-.8900092-.8900093-1.7800185-1.4366817-2.8333628-1.8450192-1.0200106-.3956708-2.1833561-.6653403-3.8867072-.7433411-1.7066844-.0776675-2.2500234-.0966677-6.5967353-.0966677z"/><path d="m28.5661517 16.8833634c.4260045-.0006667.9013428 0 1.4353483 0 4.2720445 0 4.7783831.0153335 6.4654007.0920009 1.5600162.0713341 2.4066917.3320035 2.9706976.5510058.7466745.290003 1.2790133.6366733 1.8386858 1.1966791.5600059.5600058.9066761 1.0933447 1.1973458 1.8400192.2190023.5633392.480005 1.4100147.5510058 2.9700309.0766674 1.6866842.0933343 2.1933562.0933343 6.4634007 0 4.2700444-.0166669 4.7767164-.0933343 6.4634006-.0713341 1.5600163-.3320035 2.4066918-.5510058 2.970031-.290003.7466744-.6373399 1.2783466-1.1973458 1.8380191-.5600058.5600058-1.091678.9066761-1.8386858 1.1966791-.5633392.2200023-1.4106814.480005-2.9706976.5513391-1.6866842.0766675-2.1933562.0933343-6.4654007.0933343-4.2723778 0-4.7787164-.0166668-6.4654007-.0933343-1.5600162-.0720007-2.4066917-.3326701-2.9710309-.5516724-.7466745-.290003-1.2800133-.6366733-1.8400192-1.1966791-.5600058-.5600059-.9066761-1.0920114-1.1973458-1.8390192-.2190023-.5633392-.480005-1.4100147-.5510057-2.9700309-.0766675-1.6866843-.092001-2.1933562-.092001-6.4660674s.0153335-4.7767164.092001-6.4634006c.0713341-1.5600163.3320034-2.4066918.5510057-2.9706976.290003-.7466745.63734-1.2800134 1.1973458-1.8400192.5600059-.5600059 1.0933447-.9066761 1.8400192-1.1973458.5640059-.2200023 1.4110147-.480005 2.9710309-.5516724 1.4760154-.0666674 2.0480214-.0866676 5.0300524-.090001zm9.9761039 2.6566943c-1.060011 0-1.92002.859009-1.92002 1.9193533 0 1.0600111.860009 1.92002 1.92002 1.92002 1.0600111 0 1.92002-.8600089 1.92002-1.92002 0-1.060011-.8600089-1.92002-1.92002-1.92002zm-8.5407556 2.2433567c-4.5377139 0-8.2167522 3.6790383-8.2167522 8.2167523 0 4.5377139 3.6790383 8.2150855 8.2167522 8.2150855 4.537714 0 8.2154189-3.6773716 8.2154189-8.2150855 0-4.537714-3.6780383-8.2167523-8.2157522-8.2167523z"/><path d="m30.0015 24.6667778c2.945364 0 5.3333889 2.3876915 5.3333889 5.3333889 0 2.945364-2.3880249 5.3333889-5.3333889 5.3333889-2.9456973 0-5.3333889-2.3880249-5.3333889-5.3333889 0-2.9456974 2.3876916-5.3333889 5.3333889-5.3333889z"/></g></svg>

<?xml version="1.0" encoding="UTF-8"?>
<svg width="60px" height="60px" viewBox="0 0 60 60" version="1.1" xmlns="http://www.w3.org/2000/svg" xmlns:xlink="http://www.w3.org/1999/xlink">
    <!-- Generator: Sketch 41.2 (35397) - http://www.bohemiancoding.com/sketch -->
    <title>Instagram-icons</title>
    <desc>Created with Sketch.</desc>
    <defs></defs>
    <g id="Page-1" stroke="none" stroke-width="1" fill="none" fill-rule="evenodd">
        <g id="Desktop-HD" transform="translate(-639.000000, -1431.000000)" fill="#E96E14">
            <g id="Group-2" transform="translate(433.000000, 1431.000000)">
                <g id="Instagram" transform="translate(206.000000, 0.000000)">
                    <path d="M0,30 C0,13.4314567 13.4314567,0 30,0 C46.5685433,0 60,13.4314567 60,30 C60,46.5685433 46.5685433,60 30,60 C13.4314567,60 0,46.5685433 0,30 Z M30.0015,14 C25.6561214,14 25.1107824,14.0190002 23.404098,14.0966677 C21.7007469,14.1746685 20.5380681,14.444338 19.5207242,14.8400088 C18.4683799,15.2486797 17.5757039,15.795352 16.6863613,16.685028 C15.796352,17.5743706 15.2496797,18.4670465 14.8396754,19.5190575 C14.4430046,20.5367348 14.1730018,21.6997469 14.0963343,23.4024313 C14.0200002,25.1091157 14,25.6547881 14,30.0001667 C14,34.3455453 14.0193335,34.8892176 14.0966677,36.595902 C14.1750018,38.2992531 14.4446713,39.4619319 14.8400088,40.4792758 C15.249013,41.5316201 15.7956854,42.4242961 16.6853613,43.3136387 C17.5743706,44.203648 18.4670465,44.7516537 19.5187242,45.1603246 C20.5367348,45.5559954 21.6997469,45.8256649 23.4027646,45.9036657 C25.1094491,45.9813331 25.6544547,46.0003333 29.9995,46.0003333 C34.3452119,46.0003333 34.8888843,45.9813331 36.5955687,45.9036657 C38.2989198,45.8256649 39.4629319,45.5559954 40.4809425,45.1603246 C41.5329535,44.7516537 42.4242961,44.203648 43.3133053,43.3136387 C44.2033146,42.4242961 44.749987,41.5316201 45.1599912,40.4796092 C45.5533287,39.4619319 45.8233315,38.2989198 45.9033323,36.5962354 C45.9799998,34.8895509 46,34.3455453 46,30.0001667 C46,25.6547881 45.9799998,25.1094491 45.9033323,23.4027646 C45.8233315,21.6994135 45.5533287,20.5367348 45.1599912,19.5193908 C44.749987,18.4670465 44.2033146,17.5743706 43.3133053,16.685028 C42.4232961,15.7950187 41.5332868,15.2483463 40.4799425,14.8400088 C39.4599319,14.444338 38.2965864,14.1746685 36.5932353,14.0966677 C34.8865509,14.0190002 34.3432119,14 29.9965,14 L30.0015,14 Z" id="Combined-Shape"></path>
                    <path d="M28.5661517,16.8833634 C28.9921562,16.8826967 29.4674945,16.8833634 30.0015,16.8833634 C34.2735445,16.8833634 34.7798831,16.8986969 36.4669007,16.9753643 C38.0269169,17.0466984 38.8735924,17.3073678 39.4375983,17.5263701 C40.1842728,17.8163731 40.7166116,18.1630434 41.2762841,18.7230492 C41.83629,19.283055 42.1829602,19.8163939 42.4736299,20.5630684 C42.6926322,21.1264076 42.9536349,21.9730831 43.0246357,23.5330993 C43.1013031,25.2197835 43.11797,25.7264555 43.11797,29.9965 C43.11797,34.2665444 43.1013031,34.7732164 43.0246357,36.4599006 C42.9533016,38.0199169 42.6926322,38.8665924 42.4736299,39.4299316 C42.1836269,40.176606 41.83629,40.7082782 41.2762841,41.2679507 C40.7162783,41.8279565 40.1846061,42.1746268 39.4375983,42.4646298 C38.8742591,42.6846321 38.0269169,42.9446348 36.4669007,43.0159689 C34.7802165,43.0926364 34.2735445,43.1093032 30.0015,43.1093032 C25.7291222,43.1093032 25.2227836,43.0926364 23.5360993,43.0159689 C21.9760831,42.9439682 21.1294076,42.6832988 20.5650684,42.4642965 C19.8183939,42.1742935 19.2850551,41.8276232 18.7250492,41.2676174 C18.1650434,40.7076115 17.8183731,40.175606 17.5277034,39.4285982 C17.3087011,38.865259 17.0476984,38.0185835 16.9766977,36.4585673 C16.9000302,34.771883 16.8846967,34.2652111 16.8846967,29.9924999 C16.8846967,25.7197887 16.9000302,25.2157835 16.9766977,23.5290993 C17.0480318,21.969083 17.3087011,21.1224075 17.5277034,20.5584017 C17.8177064,19.8117272 18.1650434,19.2783883 18.7250492,18.7183825 C19.2850551,18.1583766 19.8183939,17.8117064 20.5650684,17.5210367 C21.1290743,17.3010344 21.9760831,17.0410317 23.5360993,16.9693643 C25.0121147,16.9026969 25.5841207,16.8826967 28.5661517,16.8793633 L28.5661517,16.8833634 Z M38.5422556,19.5400577 C37.4822446,19.5400577 36.6222356,20.3990667 36.6222356,21.459411 C36.6222356,22.5194221 37.4822446,23.379431 38.5422556,23.379431 C39.6022667,23.379431 40.4622756,22.5194221 40.4622756,21.459411 C40.4622756,20.3994 39.6022667,19.539391 38.5422556,19.539391 L38.5422556,19.5400577 Z M30.0015,21.7834144 C25.4637861,21.7834144 21.7847478,25.4624527 21.7847478,30.0001667 C21.7847478,34.5378806 25.4637861,38.2152522 30.0015,38.2152522 C34.539214,38.2152522 38.2169189,34.5378806 38.2169189,30.0001667 C38.2169189,25.4624527 34.5388806,21.7834144 30.0011667,21.7834144 L30.0015,21.7834144 Z" id="Combined-Shape"></path>
                    <path d="M30.0015,24.6667778 C32.946864,24.6667778 35.3348889,27.0544693 35.3348889,30.0001667 C35.3348889,32.9455307 32.946864,35.3335556 30.0015,35.3335556 C27.0558027,35.3335556 24.6681111,32.9455307 24.6681111,30.0001667 C24.6681111,27.0544693 27.0558027,24.6667778 30.0015,24.6667778 L30.0015,24.6667778 Z" id="Shape"></path>
                </g>
            </g>
        </g>
    </g>
</svg>
